assets/icons/qvision/bluetooth_searching.svg

<svg xmlns="http://www.w3.org/2000/svg" height="24" viewBox="0 0 24 24" width="24"><path d="M0 0h24v24H0z" fill="none"/><path d="M14.24 12.01l2.32 2.32c.28-.72.44-1.51.44-2.33 0-.82-.16-1.59-.43-2.31l-2.33 2.32zm5.29-5.3l-1.26 1.26c.63 1.21.98 2.57.98 4.02s-.36 2.82-.98 4.02l1.2 1.2c.97-1.54 1.54-3.36 1.54-5.31-.01-1.89-.55-3.67-1.48-5.19zm-3.82 1L10 2H9v7.59L4.41 5 3 6.41 8.59 12 3 17.59 4.41 19 9 14.41V22h1l5.71-5.71-4.3-4.29 4.3-4.29zM11 5.83l1.88 1.88L11 9.59V5.83zm1.88 10.46L11 18.17v-3.76l1.88 1.88z"/></svg>

<svg width="24" height="24" viewBox="0 0 24 24" fill="none" xmlns="http://www.w3.org/2000/svg">
<g clip-path="url(#clip0_147_2361)">
<path d="M14.24 12.01L16.56 14.33C16.84 13.61 17 12.82 17 12C17 11.18 16.84 10.41 16.57 9.69L14.24 12.01ZM19.53 6.71L18.27 7.97C18.9 9.18 19.25 10.54 19.25 11.99C19.25 13.44 18.89 14.81 18.27 16.01L19.47 17.21C20.44 15.67 21.01 13.85 21.01 11.9C21 10.01 20.46 8.23 19.53 6.71ZM15.71 7.71L10 2H9V9.59L4.41 5L3 6.41L8.59 12L3 17.59L4.41 19L9 14.41V22H10L15.71 16.29L11.41 12L15.71 7.71ZM11 5.83L12.88 7.71L11 9.59V5.83ZM12.88 16.29L11 18.17V14.41L12.88 16.29Z" fill="#323232"/>
</g>
<defs>
<clipPath id="clip0_147_2361">
<rect width="24" height="24" fill="white"/>
</clipPath>
</defs>
</svg>
